!! 00000] TT[WS
!!!OTL: Wuge fangyang
!!!ARE: Asia, China, Shanxi Xingxian
!! Ethnic Group: Han
!! WII, 86 (2)
!!!SCT: J0526
!!!YEM: Copyright 1995, estate of Helmut Schaffrath.
**kern
*ICvox
*Ivox
*M2/4
*k[b-e-a-]
*E-:
{8cc
16cc
16cc
8cc
8gg
=1
4ff
4ee-
=2
8ee-
8cc
4b-
=3
8b-
8b-
8ff
8cc
=4
8b-
8a-
4f}
=5
{8.f
16a-
8f
8a-
=6
8a-
8f
4b-
=7
8b-
8cc
4ff
=8
4cc
8b-
8a-
=9
2f}
==
!!!AGN: Xiaodiao. Qingge, Sichun
!!!ONB: ESAC (Essen Associative Code) Database: CHINA
!!!AMT: simple duple
!!!AIN: vox
!!!EED: Helmut Schaffrath
!!!EEV: 1.0
*-
